X:29
T:Sean Reid's
T:Gilbert Clancy's
R:reel
D:Mary Bergin: Feadoga Stain
Z:id:hn-reel-321
M:C|
K:G
DG~G2 BG~G2|cA~A2 dcAd|DG~G2 ~B3d|cAdc AGGF|
DG~G2 BG~G2|cA~A2 dcAd|~g3a gfde|1 fdcA AGGF:|2 fdcA AGBd||
|:g2ag gfde|fefg afaf|dg~g2 gfde|fdcA AGBd|
g2ag gfde|fefg afaf|1 ~g3a gfde|fdcA AGBd:|2 dg~g2 bgag|fdcA AGGF||
